X: 472
T: Ba cong
L: 1/8
M: 2/4
K: Bb
f'2e'2 [I:setbarnb 1]| 
c'3b | 
c'4 | 
f'2e'2 | 
c'3g | 
b4 | 
bb2b | 
g'f'2f' | 
c'2f'2 | 
c' e' c' b | 
gg2b | 
c'2b g | 
bf2e | 
f4 |]

@@@ Tune index: 9346
